X: 40446
T: Tom Rae
R: reel
M: 4/4
K: Adorian
|:A,2AG EDEC|B,DGE DB,G,B,|A,2AG EDEC|B,GDB, A,2A,B,|
A,2AG EDEC|B,DGE DB,G,B,|A,2CB, A,B,CA,|1 B,GDB, A,2A,B,:|2 B,GDB, A,2A,d||
K:AMix
|:ceAe ceac|Bdgd BGGd|ceAe ceac|BgdB A2Ad|
ceAe ceac|Bdgd BGGd|=cABG AGED|1 (3EFG DB, A,2A,d:|2 (3EFG DB, A,4||

